!!!!SEGMENT: pl-cz--ii-15--004_szlagorski-walenty--walc-2.krn
!!!cenid: 18xx:1154
!!!COM: Szlagórski, Walenty
!!!COM-rismid: pe30111815
!!!CDT: 1801-1863/07/16
!!!CNT: Polish
!!!OTL: Walc 2
!!!PDT:
!!!AGN: Secular; Waltz
!!!SMS-siglum: PL-CZ
!!!SMS-shelfmark: II-15
!!!SMS-shelfwork: 004 W
!!!SMS-variant:
!!!SMS-altvar:
!!!NIFC-rismid: 300001525
!!!URL-scan: http://repozytorium.nifc.pl/skany/pl-cz-nut--ii-15
!!!ONB-nifc: UWAGA: części: 1. Mazur (Morawski), 2. Mazur (Szlagórski), 3. Walc 1, 4. Walc 2, 5. Walc 3, 6. Walc 4, 7. Walc 5, 8. Mazur (Studziński), 9. Kotylion (Szlagórski), 10. Gallop (Szlagórski), 11. Mazur (Smacierzyński). UWAGA: dalsza część partii Basso z tyłu okładki
**kern	**dynam	**kern	**kern	**kern	**kern	**dynam	**kern	**dynam	**kern	**dynam	**kern	**dynam
*part8	*part8	*part7	*part6	*part5	*part4	*part4	*part3	*part3	*part2	*part2	*part1	*part1
*staff8	*	*staff7	*staff6	*staff5	*staff4	*	*staff3	*	*staff2	*	*staff1	*
*group3	*	*group3	*group3	*group2	*group2	*	*group1	*	*group1	*	*group1	*
*I"Baſso	*	*I"Violino 2do	*I"Violino 1mo	*I"Clarino in G.	*I"Corno 1mo in D.	*	*I"Clarinetto 2do in C	*	*I"Clarinetto 1mo in C.	*	*I"Flauto Primo	*
*I'b	*	*I'vl 2	*I'vl 1	*I'clno in G	*I'cor 1 in D	*	*I'cl 2 in C	*	*I'cl 1 in C	*	*I'fl 1	*
*>[A,B,A]	*>[A,B,A]	*>[A,B,A]	*>[A,B,A]	*>[A,B,A]	*>[A,B,A]	*>[A,B,A]	*>[A,B,A]	*>[A,B,A]	*>[A,B,A]	*>[A,B,A]	*>[A,B,A]	*>[A,B,A]
*>A	*>A	*>A	*>A	*>A	*>A	*>A	*>A	*>A	*>A	*>A	*>A	*>A
*clefF4	*	*clefG2	*clefG2	*clefG2	*clefG2	*	*clefG2	*	*clefG2	*	*clefG2	*
*	*	*	*	*ITrd-1c-2	*ITrd-1c-2	*	*	*	*	*	*	*
*k[f#c#]	*	*k[f#c#]	*k[f#c#]	*k[f#c#]	*k[f#c#]	*	*k[f#c#]	*	*k[f#c#]	*	*k[f#c#]	*
*D:	*	*D:	*D:	*	*	*	*D:	*	*D:	*	*D:	*
*M3/4	*	*M3/4	*M3/4	*M3/4	*M3/4	*	*M3/4	*	*M3/4	*	*M3/4	*
!	!	!	!	!LO:TX:a:i:t=in D.:problem:dopisane przy walcu nr 1	!	!	!	!	!	!	!	!
4r	.	4r	4a/	4r	4r	.	4r	.	4r	.	4r	.
=1	=1	=1	=1	=1	=1	=1	=1	=1	=1	=1	=1	=1
!	!LO:DY:rj	!	!	!LO:TX:a:t=2	!	!	!LO:TX:a:t=4	!	!LO:TX:a:t=4	!	!LO:TX:a:t=7	!
4AA/	p	4r	4b\	1.r	4r	.	0.r	.	0.r	.	0.r	.
4r	.	4g 4A/	4r	.	4ee\	.	.	.	.	.	.	.
4r	.	4g 4A/	4A/	.	4ee\	.	.	.	.	.	.	.
=2	=2	=2	=2	=2	=2	=2	=2	=2	=2	=2	=2	=2
4A\	.	4r	4A/	.	4r	.	.	.	.	.	.	.
4r	.	4g 4A/	8c#/L	.	4ee\	.	.	.	.	.	.	.
.	.	.	8e/	.	.	.	.	.	.	.	.	.
4r	.	4g 4A/	8g/	.	4ee\	.	.	.	.	.	.	.
.	.	.	8cc#/J	.	.	.	.	.	.	.	.	.
=3	=3	=3	=3	=3	=3	=3	=3	=3	=3	=3	=3	=3
4D\	.	4r	4ee\	4.d/	4r	.	.	.	.	.	.	.
4r	.	4f# 4A/	4r	.	4ff#\	.	.	.	.	.	.	.
.	.	.	.	8d/L	.	.	.	.	.	.	.	.
4r	.	4f# 4A/	4dd\	8f#/	4ff#\	.	.	.	.	.	.	.
.	.	.	.	8a/J	.	.	.	.	.	.	.	.
=4	=4	=4	=4	=4	=4	=4	=4	=4	=4	=4	=4	=4
4D\	.	4r	4.ff#\	4dd\	4r	.	.	.	.	.	.	.
4r	.	4f# 4A/	.	4r	4ff#\	.	.	.	.	.	.	.
.	.	.	8dd\L	.	.	.	.	.	.	.	.	.
4r	.	4f# 4A/	8a\	4r	4ff#\	.	.	.	.	.	.	.
.	.	.	8f#\J	.	.	.	.	.	.	.	.	.
=5	=5	=5	=5	=5	=5	=5	=5	=5	=5	=5	=5	=5
4A\	.	4r	16g/LL	4r	4r	.	4r	.	4r	.	1.r	.
.	.	.	16b/JJ	.	.	.	.	.	.	.	.	.
.	.	.	8r	.	.	.	.	.	.	.	.	.
!	!	!	!	!	!	!	!	!LO:DY:rj	!	!LO:DY:rj	!	!
4r	.	4g 4A/	4r	8a/L	4ee\	.	4e/	p	4g/	p	.	.
.	.	.	.	8a/J	.	.	.	.	.	.	.	.
4r	.	4g 4A/	4c#/	4a/	4ee\	.	4e/	.	4g/	.	.	.
!	!	!	!	!	!LO:LB:g=original	!	!	!	!	!	!	!
=6	=6	=6	=6	=6	=6	=6	=6	=6	=6	=6	=6	=6
4AA/	.	4r	16e/LL	4r	4r	.	4r	.	4r	.	.	.
.	.	.	16g/JJ	.	.	.	.	.	.	.	.	.
.	.	.	8r	.	.	.	.	.	.	.	.	.
4r	.	4g 4A/	4r	8a/L	4ee\	.	4e/	.	4g/	.	.	.
.	.	.	.	8a/J	.	.	.	.	.	.	.	.
4r	.	4g 4A/	4A/	4a/	4ee\	.	4e/	.	4g/	.	.	.
!	!	!LO:LB:g=original	!LO:LB:g=original	!	!	!	!	!	!	!	!	!
=7	=7	=7	=7	=7	=7	=7	=7	=7	=7	=7	=7	=7
4D\	.	4r	8d/L	4d/	4dd\	.	4d/	.	4f#/	.	2.r	.
.	.	.	8f#/	.	.	.	.	.	.	.	.	.
4r	.	4f# 4A/	8e/	4r	4r	.	4r	.	4r	.	.	.
.	.	.	8d/	.	.	.	.	.	.	.	.	.
4r	.	4f# 4A/	8c#/	4r	4r	.	4r	.	4r	.	.	.
.	.	.	8B/J	.	.	.	.	.	.	.	.	.
=8	=8	=8	=8	=8	=8	=8	=8	=8	=8	=8	=8	=8
4D\	.	4r	4A/	4r	4r	.	4r	.	4r	.	4r	.
!	!	!	!	!	!	!LO:DY:rj	!	!	!	!	!	!
4r	.	4f# 4A/	4r	4d/	4dd\	f	4r	.	4r	.	4r	.
!	!	!	!	!	!	!	!	!LO:DY:rj	!	!	!	!LO:DY:rj
4r	.	4f# 4A/	4a/	4d/	4dd\	.	4a/	f	4a/	.	(4aa\	ff
!LO:LB:g=original	!	!	!	!	!	!	!	!	!	!	!	!
=9	=9	=9	=9	=9	=9	=9	=9	=9	=9	=9	=9	=9
4AA/	.	4r	4b/	4r	4r	.	4b/	.	4b/	.	4bb\)	.
4r	.	4g 4A/	4r	8a/L	4ee\	.	4r	.	4r	.	4r	.
.	.	.	.	8a/J	.	.	.	.	.	.	.	.
4r	.	4g 4A/	4A/	4a/	4ee\	.	4g/	.	4a/	.	4a/	.
!	!	!	!	!LO:LB:g=original	!	!	!	!	!	!	!	!
=10	=10	=10	=10	=10	=10	=10	=10	=10	=10	=10	=10	=10
4AA/	.	4r	4A/	4r	4r	.	4r	.	4a/	.	4a/	.
4r	.	4g 4A/	8c#/L	8a/L	4ee\	.	4g/	.	8cc#\L	.	8cc#\L	.
.	.	.	8e/	8a/J	.	.	.	.	8ee\	.	8ee\	.
4r	.	4g 4A/	8g/	4a/	4ee\	.	4g/	.	8gg\	.	8gg\	.
.	.	.	8cc#/J	.	.	.	.	.	8cc#\J	.	8ccc#\J	.
=11	=11	=11	=11	=11	=11	=11	=11	=11	=11	=11	=11	=11
4D\	.	4r	4ee\	4r	4r	.	4e/	.	4ee\	.	4eee\	.
4r	.	4f# 4A/	4r	8d/L	4ff#\	.	4r	.	4r	.	4r	.
.	.	.	.	8d/J	.	.	.	.	.	.	.	.
4r	.	4f# 4A/	4dd\	4dd\	4ff#\	.	4d/	.	4dd\	.	4ddd\	.
!	!	!	!	!	!	!	!	!	!LO:LB:g=original	!	!	!
=12	=12	=12	=12	=12	=12	=12	=12	=12	=12	=12	=12	=12
*	*	*	*2\right	*	*	*	*	*	*2\right	*	*2\right	*
4D\	.	4r	[2.ff#\	4r	4r	.	2.f#/	.	2.ff#\	.	2.fff#\	.
4r	.	4a 4d/	.	8d/L	4dd\	.	.	.	.	.	.	.
.	.	.	.	8d/J	.	.	.	.	.	.	.	.
4r	.	4a 4d/	.	4dd\	4dd\	.	.	.	.	.	.	.
!	!	!	!	!	!	!	!LO:LB:g=original	!	!	!	!LO:LB:g=original	!
=13	=13	=13	=13	=13	=13	=13	=13	=13	=13	=13	=13	=13
!	!	!	!	!LO:TX:a:t=1	!	!	!	!	!	!	!	!
4G\	.	4r	(4ff#\]	2.r	4r	.	4f#/	.	(4ff#\	.	(4fff#\	.
4r	.	4e 4B/	8ee\)	.	4ee\	.	8e/	.	8ee\)	.	8eee\)	.
.	.	.	8r	.	.	.	8r	.	8r	.	8r	.
4r	.	4e 4B/	4dd\	.	4ee\	.	4d/	.	4dd\	.	4ddd\	.
=14	=14	=14	=14	=14	=14	=14	=14	=14	=14	=14	=14	=14
4A\	.	4r	(4cc#\	4A/	4r	.	2g/	.	(4cc#\	.	(4ccc#\	.
4r	.	4g 4A/	8a\)	8a/L	4ee\	.	.	.	8a\)	.	8aa\)	.
.	.	.	8r	8a/J	.	.	.	.	8r	.	8r	.
4r	.	4g 4A/	4aa\	4a/	4ee\	.	4cc#\	.	4aa\	.	4aaa\	.
!	!	!LO:LB:g=original	!LO:LB:g=original	!	!	!	!	!	!	!	!	!
=15	=15	=15	=15	=15	=15	=15	=15	=15	=15	=15	=15	=15
4D\	.	4r	4dd\	4dd\	4r	.	4dd\	.	4ff#\	.	4fff#\	.
4D\	.	4a 4f#/	4r	8d/L	4dd\	.	4r	.	4r	.	4r	.
.	.	.	.	8d/J	.	.	.	.	.	.	.	.
4d\	.	4a 4f#/	(8ff#\L	4dd\	4dd\	.	4ff#\	.	4ddd\	.	4ddd\	.
.	.	.	8ddd\J)	.	.	.	.	.	.	.	.	.
=	=	=	=	=	=	=	=	=	=	=	=	=
*2\right	*	*	*	*	*2\right	*	*	*	*	*	*	*
!	!	!LO:TX:a:t=Fine	!	!	!LO:TX:a:t=Fine	!	!LO:TX:a:t=Fine	!	!LO:TX:a:t=Fine	!	!LO:TX:a:t=Fine	!
!LO:TX:a:t=fine	!	!LO:TX:t=P:problem:fermata nad kreską taktową	!LO:TX:t=P:problem:fermata nad kreską taktową	!LO:TX:a:t=fine	!LO:TX:t=P:problem:fermata nad kreską taktową	!	!LO:TX:t=P:problem:fermata nad kreską taktową	!	!LO:TX:t=P:problem:fermata nad kreską taktową	!	!LO:TX:t=P:problem:fermata nad kreską taktową	!
2D\	.	2a 2f#/	2d/	2d/	2dd\	.	2f#/	.	2dd\	.	2ddd\	.
=16||	=16||	=16||	=16||	=16||	=16||	=16||	=16||	=16||	=16||	=16||	=16||	=16||
*>B	*>B	*>B	*>B	*>B	*>B	*>B	*>B	*>B	*>B	*>B	*>B	*>B
4r	.	4r	4e/	4r	4r	.	4r	.	4r	.	4r	.
=17	=17	=17	=17	=17	=17	=17	=17	=17	=17	=17	=17	=17
!	!LO:DY:rj	!	!	!LO:TX:a:t=8	!	!	!	!LO:DY:rj	!	!	!LO:TX:a:t=8	!
4A\	p	4r	2e/	0.r	4r	.	2c#/	p	2e/	.	0.r	.
4r	.	4e 4c#/	.	.	4ee\	.	.	.	.	.	.	.
4r	.	4e 4c#/	8a/L	.	4ee\	.	4e/	.	(8a/L	.	.	.
.	.	.	8cc#/J	.	.	.	.	.	8cc#/J)	.	.	.
!LO:LB:g=original	!	!	!	!	!LO:LB:g=original	!	!	!	!	!	!	!
=18	=18	=18	=18	=18	=18	=18	=18	=18	=18	=18	=18	=18
4E\	.	4r	2cc#\	.	4r	.	2g#X/	.	2cc#\	.	.	.
4r	.	4e 4d/	.	.	4ee\	.	.	.	.	.	.	.
4r	.	4e 4d/	4b\	.	4ee\	.	4g#/	.	8b\	.	.	.
.	.	.	.	.	.	.	.	.	8r	.	.	.
=19	=19	=19	=19	=19	=19	=19	=19	=19	=19	=19	=19	=19
4E\	.	4e 4d/	2g#X/	.	4r	.	2d/	.	2g#X/	.	.	.
4r	.	4e 4d/	.	.	4ee\	.	.	.	.	.	.	.
4r	.	4e 4d/	8b\L	.	4ee\	.	4g#X/	.	(8b\L	.	.	.
.	.	.	8dd\J	.	.	.	.	.	8dd\J)	.	.	.
!	!	!	!	!	!	!	!	!	!LO:LB:g=original	!	!	!
=20	=20	=20	=20	=20	=20	=20	=20	=20	=20	=20	=20	=20
4AA/	.	4r	2ff#\	.	4r	.	2a/	.	2ff#\	.	.	.
4r	.	4e 4c#/	.	.	4ee\	.	.	.	.	.	.	.
4r	.	4e 4c#/	4ee\	.	4ee\	.	4a/	.	4ee\	.	.	.
=21	=21	=21	=21	=21	=21	=21	=21	=21	=21	=21	=21	=21
4AA/	.	4r	2ee\	0.r	4r	.	2c#/	.	2e/	.	0.r	.
4r	.	4e 4c#/	.	.	4ee\	.	.	.	.	.	.	.
4r	.	4e 4c#/	(8aa\L	.	4ee\	.	4e/	.	8a/L	.	.	.
.	.	.	8ccc#\J)	.	.	.	.	.	8cc#/J	.	.	.
!	!	!	!LO:LB:g=original	!	!	!	!	!	!	!	!	!
=22	=22	=22	=22	=22	=22	=22	=22	=22	=22	=22	=22	=22
!	!	!	!	!	!LO:TX:a:t=1	!	!	!	!	!	!	!
4D\	.	4r	4.ccc#\	.	2.r	.	2f#/	.	4.cc#\	.	.	.
4r	.	4b 4f#/	.	.	.	.	.	.	.	.	.	.
.	.	.	8ddd\L	.	.	.	.	.	8dd\	.	.	.
4r	.	4b 4f#/	(8ff#\	.	.	.	4f#/	.	8f#/L	.	.	.
.	.	.	8bb\J)	.	.	.	.	.	8b/J	.	.	.
!	!	!	!	!	!	!	!LO:LB:g=original	!	!	!	!	!
=23	=23	=23	=23	=23	=23	=23	=23	=23	=23	=23	=23	=23
4E\	.	4r	8aa\L	.	4ee\	.	4d/	.	4g#X/	.	.	.
.	.	.	8gg#X\	.	.	.	.	.	.	.	.	.
4r	.	4e 4d/	8ff#\	.	4ee\	.	4d/	.	4g#/	.	.	.
.	.	.	8ee\	.	.	.	.	.	.	.	.	.
4r	.	4e 4d/	(8ff#\	.	4ee\	.	4d/	.	4g#/	.	.	.
.	.	.	8gg#\J)	.	.	.	.	.	.	.	.	.
=24	=24	=24	=24	=24	=24	=24	=24	=24	=24	=24	=24	=24
4AA/	.	4e 4c#/	4aa\	.	4ee\	.	4c#/	.	4a/	.	.	.
4r	.	4r	4r	.	4r	.	4r	.	4r	.	.	.
!LO:TX:b:t=D.C. al Fine	!	!LO:TX:b:i:t=Da \nCapo \nalfin	!LO:TX:b:t=D.C.	!LO:TX:b:t=D.C.\nal Fine	!LO:TX:b:t=Da Capo al Fine	!	!LO:TX:b:t=Da Capo al Fine	!	!LO:TX:b:t=D C al Fine	!	!LO:TX:b:t=D Capo al Fine	!
4r	.	4ryy	4ryy	.	4ryy	.	4ryy	.	4ryy	.	.	.
==	==	==	==	==	==	==	==	==	==	==	==	==
*-	*-	*-	*-	*-	*-	*-	*-	*-	*-	*-	*-	*-
!!!system-decoration: [(g1)][(g2)][(g3)]
!!!ENC: Solarz Mateusz
!!!END: 2020-11-06
!!!ENC: Andrzej Kubiczek
!!!END: 2021-10-29
